Breeze Round Light/actions/22/edit-image-face-add.svg

<svg xmlns="http://www.w3.org/2000/svg" viewBox="0 0 22 22">
  <defs id="defs3051">
    <style type="text/css" id="current-color-scheme">
      .ColorScheme-Text {
        color:#232629;
      }
      </style>
  </defs>
 <path 
    style="fill:currentColor;fill-opacity:1;stroke:none" 
	d="m3 3v1 14 1h10v-1h-9v-14h14v9h1v-9-1h-1-15m8 2c-1.385 0-2.5 1.115-2.5 2.5 0 1.385 1.115 2.5 2.5 2.5 1.385 0 2.5-1.115 2.5-2.5 0-1.385-1.115-2.5-2.5-2.5m0 1c.831 0 1.5.669 1.5 1.5 0 .831-.669 1.5-1.5 1.5-.831 0-1.5-.669-1.5-1.5 0-.831.669-1.5 1.5-1.5m0 5c-2.49299 0-4.5 2.00701-4.5 4.5v.5 1h.275391.724609.345703 5.154297v-1h-5.5v-.5c0-1.93899 1.56101-3.5 3.5-3.5.955954 0 1.816828.382914 2.447266 1h1.296875c-.805483-1.206782-2.178208-2-3.744141-2m5 3v2h-2v1h2v2h1v-2h2v-1h-2v-2h-1"
    class="ColorScheme-Text"
    />  
</svg>

<?xml version="1.0" encoding="UTF-8" standalone="no"?>
<svg
  viewBox="0 0 22 22"
  version="1.1"
  id="svg1"
  xmlns="http://www.w3.org/2000/svg"
  xmlns:svg="http://www.w3.org/2000/svg">
 <defs
   id="defs3051">
<style type="text/css" id="current-color-scheme">.ColorScheme-Text {color:#fcfcfc;}</style>
 </defs>
 <path
   id="path1"
   style="fill:currentColor;fill-opacity:1;stroke:none"
   class="ColorScheme-Text"
   d="m 6,3 c 0,0 -3,0 -3,3 0,3 0,7 0,10 0,3 3,3 3,3 h 7 V 18 H 6 C 6,18 4,18 4,16 4,14 4,8 4,6 4,4 6,4 6,4 h 10 c 0,0 2,0 2,2 0,2 0,7 0,7 h 1 c 0,0 0,-4 0,-7 0,-3 -3,-3 -3,-3 z m 5,2 C 9.6150014,5 8.5,6.1150014 8.5,7.5 8.5,8.8849986 9.6150014,10 11,10 12.384999,10 13.5,8.8849986 13.5,7.5 13.5,6.1150014 12.384999,5 11,5 Z m 0,1 c 0.830999,0 1.5,0.6690008 1.5,1.5 C 12.5,8.3309992 11.830999,9 11,9 10.169001,9 9.5,8.3309992 9.5,7.5 9.5,6.6690008 10.169001,6 11,6 Z m 0,5 C 8.5070125,11 6.5,13.007012 6.5,15.5 V 16 17 H 6.7753906 7.5 7.8457031 13 V 16 H 7.5 V 15.5 C 7.5,13.561012 9.0610119,12 11,12 c 0.955953,0 1.816828,0.382915 2.447266,1 h 1.296875 C 13.938658,11.793219 12.565931,11 11,11 Z m 5,3 v 2 h -2 v 1 h 2 v 2 h 1 v -2 h 2 v -1 h -2 v -2 z" />
</svg>
